Obsidian/actions/16s/mail-signed-full.svg

<svg height="16" viewBox="0 0 16 16" width="16" xmlns="http://www.w3.org/2000/svg"><path d="m2 2c-1.108 0-2 .892-2 2v8c0 1.108.892 2 2 2h7v-2c.00005-.2652.1054287-.519521.2929688-.707031l2.0000002-2.0000002 1-1 1-1c.184-.1843001.433359-.2889688.693359-.2929688.26993-.00361.529853.1020487.720703.2929688l1.292969 1.2929687v-4.5859375c0-1.108-.892-2-2-2zm0 2 6 3 6-3v2l-6 3-6-3zm12 4-1 1-1 1-2 2v2h2l.59375-.59375.40625-.40625 1-1 1-1 1-1z" fill="#bebebe"/></svg>

<svg xmlns="http://www.w3.org/2000/svg" width="16" height="16" viewBox="0 0 16 16">
 <defs>
  <style id="current-color-scheme" type="text/css">
   .ColorScheme-Text { color:#bebebe; } .ColorScheme-Highlight { color:#4285f4; }
  </style>
 </defs>
 <path style="fill:currentColor" class="ColorScheme-Text" d="M 2 2 C 0.892 2 0 2.892 0 4 L 0 12 C 0 13.108 0.892 14 2 14 L 9 14 L 9 12 C 9.00005 11.7348 9.1054287 11.480479 9.2929688 11.292969 L 11.292969 9.2929688 L 12.292969 8.2929688 L 13.292969 7.2929688 C 13.476969 7.1086687 13.726328 7.004 13.986328 7 C 14.256258 6.99639 14.516181 7.1020487 14.707031 7.2929688 L 16 8.5859375 L 16 4 C 16 2.892 15.108 2 14 2 L 2 2 z M 2 4 L 8 7 L 14 4 L 14 6 L 8 9 L 2 6 L 2 4 z M 14 8 L 13 9 L 12 10 L 10 12 L 10 14 L 12 14 L 12.59375 13.40625 L 13 13 L 14 12 L 15 11 L 16 10 L 14 8 z"/>
</svg>
